icons/stop-outline.svg

<svg xmlns="http://www.w3.org/2000/svg" width="24" height="24" viewBox="0 0 24 24">
  <path d="M17,4 L7,4 C5.34314575,4 4,5.34314575 4,7 L4,17 C4,18.6568542 5.34314575,20 7,20 L17,20 C18.6568542,20 20,18.6568542 20,17 L20,7 C20,5.34314575 18.6568542,4 17,4 Z M7,6 L17,6 C17.5522847,6 18,6.44771525 18,7 L18,17 C18,17.5522847 17.5522847,18 17,18 L7,18 C6.44771525,18 6,17.5522847 6,17 L6,7 C6,6.44771525 6.44771525,6 7,6 Z"/>
</svg>

<svg xmlns="http://www.w3.org/2000/svg" viewBox="0 0 24 24">
  <path d="M17 4H7a3 3 0 0 0-3 3v10a3 3 0 0 0 3 3h10a3 3 0 0 0 3-3V7a3 3 0 0 0-3-3zM7 6h10a1 1 0 0 1 1 1v10a1 1 0 0 1-1 1H7a1 1 0 0 1-1-1V7a1 1 0 0 1 1-1z"/>
</svg>
